static/img/kroki/5f416052c6c3ee8201771959a9d20f08.svg

<?xml version="1.0" encoding="us-ascii" standalone="no"?><svg xmlns="http://www.w3.org/2000/svg" xmlns:xlink="http://www.w3.org/1999/xlink" contentStyleType="text/css" height="927px" preserveAspectRatio="none" style="width:442px;height:927px;" version="1.1" viewBox="0 0 442 927" width="442px" zoomAndPan="magnify"><defs/><g><!--class access_key--><g id="elem_access_key"><rect codeLine="22" fill="#3D176E" height="74.0859" id="access_key" rx="2.5" ry="2.5" style="stroke:#000D19;stroke-width:0.5;" width="216" x="7" y="438.76"/><ellipse cx="60.25" cy="458.6545" fill="#ADD1B2" rx="11" ry="11" style="stroke:#181818;stroke-width:1.0;"/><path d="M63.2188,464.2952 Q62.6406,464.592 62,464.7327 Q61.3594,464.8889 60.6563,464.8889 Q58.1563,464.8889 56.8281,463.2483 Q55.5156,461.592 55.5156,458.467 Q55.5156,455.342 56.8281,453.6858 Q58.1563,452.0295 60.6563,452.0295 Q61.3594,452.0295 62,452.1858 Q62.6563,452.342 63.2188,452.6389 L63.2188,455.3577 Q62.5938,454.7795 62,454.5139 Q61.4063,454.2327 60.7813,454.2327 Q59.4375,454.2327 58.75,455.3108 Q58.0625,456.3733 58.0625,458.467 Q58.0625,460.5608 58.75,461.6389 Q59.4375,462.7014 60.7813,462.7014 Q61.4063,462.7014 62,462.4358 Q62.5938,462.1545 63.2188,461.5764 L63.2188,464.2952 Z " fill="#000000"/><text fill="#D9B8FF" font-family="Helvetica" font-size="17" lengthAdjust="spacing" textLength="91" x="85.75" y="464.5398">access_key</text><line style="stroke:#000D19;stroke-width:0.5;" x1="8" x2="222" y1="478.5491" y2="478.5491"/><text fill="#D9B8FF" font-family="sans-serif" font-size="14" font-weight="bold" lengthAdjust="spacing" textLength="146" x="18" y="500.5442">access_key_status</text><text fill="#D9B8FF" font-family="sans-serif" font-size="14" lengthAdjust="spacing" textLength="48" x="164" y="500.5442">: string</text></g><!--class aws_iam_access_key--><g id="elem_aws_iam_access_key"><rect codeLine="25" fill="#3D176E" height="74.0859" id="aws_iam_access_key" rx="2.5" ry="2.5" style="stroke:#000D19;stroke-width:0.5;" width="420" x="15" y="633.85"/><ellipse cx="128.75" cy="653.7445" fill="#ADD1B2" rx="11" ry="11" style="stroke:#181818;stroke-width:1.0;"/><path d="M131.7188,659.3852 Q131.1406,659.682 130.5,659.8227 Q129.8594,659.9789 129.1563,659.9789 Q126.6563,659.9789 125.3281,658.3383 Q124.0156,656.682 124.0156,653.557 Q124.0156,650.432 125.3281,648.7758 Q126.6563,647.1195 129.1563,647.1195 Q129.8594,647.1195 130.5,647.2758 Q131.1563,647.432 131.7188,647.7289 L131.7188,650.4477 Q131.0938,649.8695 130.5,649.6039 Q129.9063,649.3227 129.2813,649.3227 Q127.9375,649.3227 127.25,650.4008 Q126.5625,651.4633 126.5625,653.557 Q126.5625,655.6508 127.25,656.7289 Q127.9375,657.7914 129.2813,657.7914 Q129.9063,657.7914 130.5,657.5258 Q131.0938,657.2445 131.7188,656.6664 L131.7188,659.3852 Z " fill="#000000"/><text fill="#D9B8FF" font-family="Helvetica" font-size="17" lengthAdjust="spacing" textLength="174" x="154.25" y="659.6298">aws_iam_access_key</text><line style="stroke:#000D19;stroke-width:0.5;" x1="16" x2="434" y1="673.6391" y2="673.6391"/><text fill="#D9B8FF" font-family="sans-serif" font-size="14" font-weight="bold" lengthAdjust="spacing" textLength="171" x="26" y="695.6342">access_key_last_used</text><text fill="#D9B8FF" font-family="sans-serif" font-size="14" lengthAdjust="spacing" textLength="227" x="197" y="695.6342">: aws_iam_access_key_last_used</text></g><!--class aws_iam_access_key_last_used--><g id="elem_aws_iam_access_key_last_used"><rect codeLine="28" fill="#3D176E" height="152.9766" id="aws_iam_access_key_last_used" rx="2.5" ry="2.5" style="stroke:#000D19;stroke-width:0.5;" width="303" x="73.5" y="767.93"/><ellipse cx="88.5" cy="787.8245" fill="#ADD1B2" rx="11" ry="11" style="stroke:#181818;stroke-width:1.0;"/><path d="M91.4688,793.4652 Q90.8906,793.762 90.25,793.9027 Q89.6094,794.0589 88.9063,794.0589 Q86.4063,794.0589 85.0781,792.4183 Q83.7656,790.762 83.7656,787.637 Q83.7656,784.512 85.0781,782.8558 Q86.4063,781.1995 88.9063,781.1995 Q89.6094,781.1995 90.25,781.3558 Q90.9063,781.512 91.4688,781.8089 L91.4688,784.5277 Q90.8438,783.9495 90.25,783.6839 Q89.6563,783.4027 89.0313,783.4027 Q87.6875,783.4027 87,784.4808 Q86.3125,785.5433 86.3125,787.637 Q86.3125,789.7308 87,790.8089 Q87.6875,791.8714 89.0313,791.8714 Q89.6563,791.8714 90.25,791.6058 Q90.8438,791.3245 91.4688,790.7464 L91.4688,793.4652 Z " fill="#000000"/><text fill="#D9B8FF" font-family="Helvetica" font-size="17" lengthAdjust="spacing" textLength="261" x="107.5" y="793.7098">aws_iam_access_key_last_used</text><line style="stroke:#000D19;stroke-width:0.5;" x1="74.5" x2="375.5" y1="807.7191" y2="807.7191"/><text fill="#D9B8FF" font-family="sans-serif" font-size="14" font-weight="bold" lengthAdjust="spacing" textLength="93" x="84.5" y="829.7142">last_rotated</text><text fill="#D9B8FF" font-family="sans-serif" font-size="14" lengthAdjust="spacing" textLength="70" x="177.5" y="829.7142">: datetime</text><text fill="#D9B8FF" font-family="sans-serif" font-size="14" font-weight="bold" lengthAdjust="spacing" textLength="74" x="84.5" y="856.0111">last_used</text><text fill="#D9B8FF" font-family="sans-serif" font-size="14" lengthAdjust="spacing" textLength="70" x="158.5" y="856.0111">: datetime</text><text fill="#D9B8FF" font-family="sans-serif" font-size="14" font-weight="bold" lengthAdjust="spacing" textLength="51" x="84.5" y="882.3079">region</text><text fill="#D9B8FF" font-family="sans-serif" font-size="14" lengthAdjust="spacing" textLength="48" x="135.5" y="882.3079">: string</text><text fill="#D9B8FF" font-family="sans-serif" font-size="14" font-weight="bold" lengthAdjust="spacing" textLength="108" x="84.5" y="908.6048">service_name</text><text fill="#D9B8FF" font-family="sans-serif" font-size="14" lengthAdjust="spacing" textLength="48" x="192.5" y="908.6048">: string</text></g><!--class aws_resource--><g id="elem_aws_resource"><rect codeLine="34" fill="#3D176E" height="74.0859" id="aws_resource" rx="2.5" ry="2.5" style="stroke:#000D19;stroke-width:0.5;" width="155" x="258.5" y="438.76"/><ellipse cx="273.5" cy="458.6545" fill="#ADD1B2" rx="11" ry="11" style="stroke:#181818;stroke-width:1.0;"/><path d="M276.4688,464.2952 Q275.8906,464.592 275.25,464.7327 Q274.6094,464.8889 273.9063,464.8889 Q271.4063,464.8889 270.0781,463.2483 Q268.7656,461.592 268.7656,458.467 Q268.7656,455.342 270.0781,453.6858 Q271.4063,452.0295 273.9063,452.0295 Q274.6094,452.0295 275.25,452.1858 Q275.9063,452.342 276.4688,452.6389 L276.4688,455.3577 Q275.8438,454.7795 275.25,454.5139 Q274.6563,454.2327 274.0313,454.2327 Q272.6875,454.2327 272,455.3108 Q271.3125,456.3733 271.3125,458.467 Q271.3125,460.5608 272,461.6389 Q272.6875,462.7014 274.0313,462.7014 Q274.6563,462.7014 275.25,462.4358 Q275.8438,462.1545 276.4688,461.5764 L276.4688,464.2952 Z " fill="#000000"/><text fill="#D9B8FF" font-family="Helvetica" font-size="17" lengthAdjust="spacing" textLength="113" x="292.5" y="464.5398">aws_resource</text><line style="stroke:#000D19;stroke-width:0.5;" x1="259.5" x2="412.5" y1="478.5491" y2="478.5491"/><text fill="#D9B8FF" font-family="sans-serif" font-size="14" font-weight="bold" lengthAdjust="spacing" textLength="26" x="269.5" y="500.5442">arn</text><text fill="#D9B8FF" font-family="sans-serif" font-size="14" lengthAdjust="spacing" textLength="48" x="295.5" y="500.5442">: string</text></g><!--class resource--><g id="elem_resource"><rect codeLine="37" fill="#3D176E" height="310.7578" id="resource" rx="2.5" ry="2.5" style="stroke:#000D19;stroke-width:0.5;" width="227" x="111.5" y="7"/><ellipse cx="180.25" cy="26.8945" fill="#ADD1B2" rx="11" ry="11" style="stroke:#181818;stroke-width:1.0;"/><path d="M183.2188,32.5352 Q182.6406,32.832 182,32.9727 Q181.3594,33.1289 180.6563,33.1289 Q178.1563,33.1289 176.8281,31.4883 Q175.5156,29.832 175.5156,26.707 Q175.5156,23.582 176.8281,21.9258 Q178.1563,20.2695 180.6563,20.2695 Q181.3594,20.2695 182,20.4258 Q182.6563,20.582 183.2188,20.8789 L183.2188,23.5977 Q182.5938,23.0195 182,22.7539 Q181.4063,22.4727 180.7813,22.4727 Q179.4375,22.4727 178.75,23.5508 Q178.0625,24.6133 178.0625,26.707 Q178.0625,28.8008 178.75,29.8789 Q179.4375,30.9414 180.7813,30.9414 Q181.4063,30.9414 182,30.6758 Q182.5938,30.3945 183.2188,29.8164 L183.2188,32.5352 Z " fill="#000000"/><text fill="#D9B8FF" font-family="Helvetica" font-size="17" lengthAdjust="spacing" textLength="71" x="205.75" y="32.7798">resource</text><line style="stroke:#000D19;stroke-width:0.5;" x1="112.5" x2="337.5" y1="46.7891" y2="46.7891"/><text fill="#D9B8FF" font-family="sans-serif" font-size="14" font-weight="bold" lengthAdjust="spacing" textLength="29" x="122.5" y="68.7842">age</text><text fill="#D9B8FF" font-family="sans-serif" font-size="14" lengthAdjust="spacing" textLength="66" x="151.5" y="68.7842">: duration</text><text fill="#D9B8FF" font-family="sans-serif" font-size="14" font-weight="bold" lengthAdjust="spacing" textLength="43" x="122.5" y="95.0811">atime</text><text fill="#D9B8FF" font-family="sans-serif" font-size="14" lengthAdjust="spacing" textLength="70" x="165.5" y="95.0811">: datetime</text><text fill="#D9B8FF" font-family="sans-serif" font-size="14" font-weight="bold" lengthAdjust="spacing" textLength="43" x="122.5" y="121.3779">ctime</text><text fill="#D9B8FF" font-family="sans-serif" font-size="14" lengthAdjust="spacing" textLength="70" x="165.5" y="121.3779">: datetime</text><text fill="#D9B8FF" font-family="sans-serif" font-size="14" font-weight="bold" lengthAdjust="spacing" textLength="14" x="122.5" y="147.6748">id</text><text fill="#D9B8FF" font-family="sans-serif" font-size="14" lengthAdjust="spacing" textLength="48" x="136.5" y="147.6748">: string</text><text fill="#D9B8FF" font-family="sans-serif" font-size="14" font-weight="bold" lengthAdjust="spacing" textLength="33" x="122.5" y="173.9717">kind</text><text fill="#D9B8FF" font-family="sans-serif" font-size="14" lengthAdjust="spacing" textLength="48" x="155.5" y="173.9717">: string</text><text fill="#D9B8FF" font-family="sans-serif" font-size="14" font-weight="bold" lengthAdjust="spacing" textLength="90" x="122.5" y="200.2686">last_access</text><text fill="#D9B8FF" font-family="sans-serif" font-size="14" lengthAdjust="spacing" textLength="66" x="212.5" y="200.2686">: duration</text><text fill="#D9B8FF" font-family="sans-serif" font-size="14" font-weight="bold" lengthAdjust="spacing" textLength="90" x="122.5" y="226.5654">last_update</text><text fill="#D9B8FF" font-family="sans-serif" font-size="14" lengthAdjust="spacing" textLength="66" x="212.5" y="226.5654">: duration</text><text fill="#D9B8FF" font-family="sans-serif" font-size="14" font-weight="bold" lengthAdjust="spacing" textLength="48" x="122.5" y="252.8623">mtime</text><text fill="#D9B8FF" font-family="sans-serif" font-size="14" lengthAdjust="spacing" textLength="70" x="170.5" y="252.8623">: datetime</text><text fill="#D9B8FF" font-family="sans-serif" font-size="14" font-weight="bold" lengthAdjust="spacing" textLength="43" x="122.5" y="279.1592">name</text><text fill="#D9B8FF" font-family="sans-serif" font-size="14" lengthAdjust="spacing" textLength="48" x="165.5" y="279.1592">: string</text><text fill="#D9B8FF" font-family="sans-serif" font-size="14" font-weight="bold" lengthAdjust="spacing" textLength="34" x="122.5" y="305.4561">tags</text><text fill="#D9B8FF" font-family="sans-serif" font-size="14" lengthAdjust="spacing" textLength="171" x="156.5" y="305.4561">: dictionary[string, string]</text></g><!--reverse link resource to access_key--><g id="link_resource_access_key"><path codeLine="49" d="M164.3269,335.153 C148.4269,380.183 138.47,408.35 127.82,438.52 " fill="none" id="resource-backto-access_key" style="stroke:#FFAF37;stroke-width:2.0;"/><polygon fill="none" points="170.32,318.18,158.6692,333.1553,169.9845,337.1507,170.32,318.18" style="stroke:#FFAF37;stroke-width:2.0;"/></g><!--reverse link access_key to aws_iam_access_key--><g id="link_access_key_aws_iam_access_key"><path codeLine="50" d="M144.599,528.7607 C164.199,563.1707 184.58,598.94 204.22,633.41 " fill="none" id="access_key-backto-aws_iam_access_key" style="stroke:#FFAF37;stroke-width:2.0;"/><polygon fill="none" points="135.69,513.12,139.3854,531.7303,149.8125,525.791,135.69,513.12" style="stroke:#FFAF37;stroke-width:2.0;"/></g><!--link aws_iam_access_key to aws_iam_access_key_last_used--><g id="link_aws_iam_access_key_aws_iam_access_key_last_used"><path codeLine="51" d="M225,708.27 C225,725.58 225,740.96 225,761.56 " fill="none" id="aws_iam_access_key-to-aws_iam_access_key_last_used" style="stroke:#FFAF37;stroke-width:2.0;"/><polygon fill="#FFAF37" points="225,767.56,229,758.56,225,762.56,221,758.56,225,767.56" style="stroke:#FFAF37;stroke-width:2.0;"/></g><!--reverse link aws_resource to aws_iam_access_key--><g id="link_aws_resource_aws_iam_access_key"><path codeLine="52" d="M306.1495,528.7254 C286.3695,563.1354 265.79,598.94 245.97,633.41 " fill="none" id="aws_resource-backto-aws_iam_access_key" style="stroke:#FFAF37;stroke-width:2.0;"/><polygon fill="none" points="315.12,513.12,300.9477,525.7353,311.3513,531.7156,315.12,513.12" style="stroke:#FFAF37;stroke-width:2.0;"/></g><!--reverse link resource to aws_resource--><g id="link_resource_aws_resource"><path codeLine="53" d="M286.2167,335.134 C302.2767,380.164 312.31,408.35 323.07,438.52 " fill="none" id="resource-backto-aws_resource" style="stroke:#FFAF37;stroke-width:2.0;"/><polygon fill="none" points="280.17,318.18,280.5653,337.1495,291.868,333.1184,280.17,318.18" style="stroke:#FFAF37;stroke-width:2.0;"/></g><!--SRC=[XP91J-Cm48Nl-HMMk4L4QXT1AK98RANLSa4hu8PGDBKdgTN6hiOELPVT_uwJDDHnad9BPZw_UM_ibHJ8iDZQFIkmM2APoAobsW91mUw9z6wXDvhOMPP1TZ4Bcx-qijy2Zr0W-usRTxIIGqYyh2HVApI6_V1QFu6lSzAb4esy9L36jL1PZrfim9XxQqakIukU6J5VNcTPI8QYPnTYEhl27gP981sGoMGYflCG-NRKoTnVnBFyYspgB-rHM-pPx8segPCkAy8psGlQzaSz_W4XfChPfLTxQZoHGkhKdrSWzAwYCzWOVuonIAZjVekBNYgSNujiDWW_ZC6ysXm3pjrxITUuPnzH71z_KsF1bYQERvmOEKFH__R8pgGIYdJygCDiMXeKrUa-VkoVq3n2jNhzHzfvQbI5-x2omBRLJlFgXBdKoWiGnmRfNN9CbRkgaMI4HfV4iSb4QW3h8dcj94e2wyPLbMf-u8KFrAJeU7DtrotKkPg511EQnDjAA-WK0tE2i75i8MyK9Q-E0UrVczxvWNbpKRz2tlvBaiHx9v5txuTUx_AYWJUI97Udtq9d-wFA0qHR-WG0]--></g></svg>

<svg xmlns="http://www.w3.org/2000/svg" width="442" height="927" viewBox="0 0 442 927"><rect width="216" height="74.086" x="7" y="438.76" fill="#3D176E" rx="2.5" ry="2.5" style="stroke:#000d19;stroke-width:.5"/><circle cx="60.25" cy="458.654" r="11" fill="#ADD1B2" style="stroke:#181818;stroke-width:1"/><path d="M63.219 464.295q-.578.297-1.219.438-.64.156-1.344.156-2.5 0-3.828-1.64-1.312-1.657-1.312-4.782t1.312-4.781q1.328-1.656 3.828-1.656.703 0 1.344.156.656.156 1.219.453v2.719q-.625-.579-1.219-.844-.594-.281-1.219-.281-1.343 0-2.031 1.078-.687 1.062-.687 3.156t.687 3.172q.688 1.062 2.031 1.062.625 0 1.219-.265.594-.281 1.219-.86z"/><text x="85.75" y="464.54" fill="#D9B8FF" font-family="Helvetica" font-size="17" textLength="91">access_key</text><path d="M8 478.549h214" style="stroke:#000d19;stroke-width:.5"/><text x="18" y="500.544" fill="#D9B8FF" font-family="sans-serif" font-size="14" font-weight="bold" textLength="146">access_key_status</text><text x="164" y="500.544" fill="#D9B8FF" font-family="sans-serif" font-size="14" textLength="48">: string</text><rect width="420" height="74.086" x="15" y="633.85" fill="#3D176E" rx="2.5" ry="2.5" style="stroke:#000d19;stroke-width:.5"/><circle cx="128.75" cy="653.745" r="11" fill="#ADD1B2" style="stroke:#181818;stroke-width:1"/><path d="M131.719 659.385q-.578.297-1.219.438-.64.156-1.344.156-2.5 0-3.828-1.64-1.312-1.657-1.312-4.782t1.312-4.781q1.328-1.656 3.828-1.656.703 0 1.344.156.656.156 1.219.453v2.719q-.625-.578-1.219-.844-.594-.281-1.219-.281-1.344 0-2.031 1.078-.687 1.062-.687 3.156t.687 3.172q.688 1.062 2.031 1.062.625 0 1.219-.265.594-.281 1.219-.86z"/><text x="154.25" y="659.63" fill="#D9B8FF" font-family="Helvetica" font-size="17" textLength="174">aws_iam_access_key</text><path d="M16 673.639h418" style="stroke:#000d19;stroke-width:.5"/><text x="26" y="695.634" fill="#D9B8FF" font-family="sans-serif" font-size="14" font-weight="bold" textLength="171">access_key_last_used</text><text x="197" y="695.634" fill="#D9B8FF" font-family="sans-serif" font-size="14" textLength="227">: aws_iam_access_key_last_used</text><rect width="303" height="152.977" x="73.5" y="767.93" fill="#3D176E" rx="2.5" ry="2.5" style="stroke:#000d19;stroke-width:.5"/><circle cx="88.5" cy="787.824" r="11" fill="#ADD1B2" style="stroke:#181818;stroke-width:1"/><path d="M91.469 793.465q-.578.297-1.219.438-.64.156-1.344.156-2.5 0-3.828-1.64-1.312-1.657-1.312-4.782t1.312-4.781q1.328-1.657 3.828-1.657.703 0 1.344.157.656.156 1.219.453v2.719q-.625-.579-1.219-.844-.594-.281-1.219-.281-1.344 0-2.031 1.078-.687 1.062-.687 3.156t.687 3.172q.688 1.062 2.031 1.062.625 0 1.219-.265.594-.282 1.219-.86z"/><text x="107.5" y="793.71" fill="#D9B8FF" font-family="Helvetica" font-size="17" textLength="261">aws_iam_access_key_last_used</text><path d="M74.5 807.719h301" style="stroke:#000d19;stroke-width:.5"/><text x="84.5" y="829.714" fill="#D9B8FF" font-family="sans-serif" font-size="14" font-weight="bold" textLength="93">last_rotated</text><text x="177.5" y="829.714" fill="#D9B8FF" font-family="sans-serif" font-size="14" textLength="70">: datetime</text><text x="84.5" y="856.011" fill="#D9B8FF" font-family="sans-serif" font-size="14" font-weight="bold" textLength="74">last_used</text><text x="158.5" y="856.011" fill="#D9B8FF" font-family="sans-serif" font-size="14" textLength="70">: datetime</text><text x="84.5" y="882.308" fill="#D9B8FF" font-family="sans-serif" font-size="14" font-weight="bold" textLength="51">region</text><text x="135.5" y="882.308" fill="#D9B8FF" font-family="sans-serif" font-size="14" textLength="48">: string</text><text x="84.5" y="908.605" fill="#D9B8FF" font-family="sans-serif" font-size="14" font-weight="bold" textLength="108">service_name</text><text x="192.5" y="908.605" fill="#D9B8FF" font-family="sans-serif" font-size="14" textLength="48">: string</text><rect width="155" height="74.086" x="258.5" y="438.76" fill="#3D176E" rx="2.5" ry="2.5" style="stroke:#000d19;stroke-width:.5"/><circle cx="273.5" cy="458.654" r="11" fill="#ADD1B2" style="stroke:#181818;stroke-width:1"/><path d="M276.469 464.295q-.578.297-1.219.438-.64.156-1.344.156-2.5 0-3.828-1.64-1.312-1.657-1.312-4.782t1.312-4.781q1.328-1.656 3.828-1.656.703 0 1.344.156.656.156 1.219.453v2.719q-.625-.579-1.219-.844-.594-.281-1.219-.281-1.344 0-2.031 1.078-.687 1.062-.687 3.156t.687 3.172q.688 1.062 2.031 1.062.625 0 1.219-.265.594-.281 1.219-.86z"/><text x="292.5" y="464.54" fill="#D9B8FF" font-family="Helvetica" font-size="17" textLength="113">aws_resource</text><path d="M259.5 478.549h153" style="stroke:#000d19;stroke-width:.5"/><text x="269.5" y="500.544" fill="#D9B8FF" font-family="sans-serif" font-size="14" font-weight="bold" textLength="26">arn</text><text x="295.5" y="500.544" fill="#D9B8FF" font-family="sans-serif" font-size="14" textLength="48">: string</text><rect width="227" height="310.758" x="111.5" y="7" fill="#3D176E" rx="2.5" ry="2.5" style="stroke:#000d19;stroke-width:.5"/><circle cx="180.25" cy="26.895" r="11" fill="#ADD1B2" style="stroke:#181818;stroke-width:1"/><path d="M183.219 32.535q-.578.297-1.219.438-.64.156-1.344.156-2.5 0-3.828-1.64-1.312-1.657-1.312-4.782t1.312-4.781q1.328-1.656 3.828-1.656.703 0 1.344.156.656.156 1.219.453v2.719q-.625-.578-1.219-.844-.594-.281-1.219-.281-1.344 0-2.031 1.078-.687 1.062-.687 3.156t.687 3.172q.688 1.062 2.031 1.062.625 0 1.219-.265.594-.281 1.219-.86z"/><text x="205.75" y="32.78" fill="#D9B8FF" font-family="Helvetica" font-size="17" textLength="71">resource</text><path d="M112.5 46.789h225" style="stroke:#000d19;stroke-width:.5"/><text x="122.5" y="68.784" fill="#D9B8FF" font-family="sans-serif" font-size="14" font-weight="bold" textLength="29">age</text><text x="151.5" y="68.784" fill="#D9B8FF" font-family="sans-serif" font-size="14" textLength="66">: duration</text><text x="122.5" y="95.081" fill="#D9B8FF" font-family="sans-serif" font-size="14" font-weight="bold" textLength="43">atime</text><text x="165.5" y="95.081" fill="#D9B8FF" font-family="sans-serif" font-size="14" textLength="70">: datetime</text><text x="122.5" y="121.378" fill="#D9B8FF" font-family="sans-serif" font-size="14" font-weight="bold" textLength="43">ctime</text><text x="165.5" y="121.378" fill="#D9B8FF" font-family="sans-serif" font-size="14" textLength="70">: datetime</text><text x="122.5" y="147.675" fill="#D9B8FF" font-family="sans-serif" font-size="14" font-weight="bold" textLength="14">id</text><text x="136.5" y="147.675" fill="#D9B8FF" font-family="sans-serif" font-size="14" textLength="48">: string</text><text x="122.5" y="173.972" fill="#D9B8FF" font-family="sans-serif" font-size="14" font-weight="bold" textLength="33">kind</text><text x="155.5" y="173.972" fill="#D9B8FF" font-family="sans-serif" font-size="14" textLength="48">: string</text><text x="122.5" y="200.269" fill="#D9B8FF" font-family="sans-serif" font-size="14" font-weight="bold" textLength="90">last_access</text><text x="212.5" y="200.269" fill="#D9B8FF" font-family="sans-serif" font-size="14" textLength="66">: duration</text><text x="122.5" y="226.565" fill="#D9B8FF" font-family="sans-serif" font-size="14" font-weight="bold" textLength="90">last_update</text><text x="212.5" y="226.565" fill="#D9B8FF" font-family="sans-serif" font-size="14" textLength="66">: duration</text><text x="122.5" y="252.862" fill="#D9B8FF" font-family="sans-serif" font-size="14" font-weight="bold" textLength="48">mtime</text><text x="170.5" y="252.862" fill="#D9B8FF" font-family="sans-serif" font-size="14" textLength="70">: datetime</text><text x="122.5" y="279.159" fill="#D9B8FF" font-family="sans-serif" font-size="14" font-weight="bold" textLength="43">name</text><text x="165.5" y="279.159" fill="#D9B8FF" font-family="sans-serif" font-size="14" textLength="48">: string</text><text x="122.5" y="305.456" fill="#D9B8FF" font-family="sans-serif" font-size="14" font-weight="bold" textLength="34">tags</text><text x="156.5" y="305.456" fill="#D9B8FF" font-family="sans-serif" font-size="14" textLength="171">: dictionary[string, string]</text><path fill="none" d="M164.327 335.153c-15.9 45.03-25.857 73.197-36.507 103.367m42.5-120.34-11.65 14.975 11.315 3.996z" style="stroke:#ffaf37;stroke-width:2"/><g fill="none"><path d="M144.599 528.76c19.6 34.41 39.981 70.18 59.621 104.65" style="stroke:#ffaf37;stroke-width:2"/><path d="m135.69 513.12 3.695 18.61 10.428-5.939z" style="stroke:#ffaf37;stroke-width:2"/></g><path fill="none" d="M225 708.27v53.29" style="stroke:#ffaf37;stroke-width:2"/><path fill="#FFAF37" d="m225 767.56 4-9-4 4-4-4z" style="stroke:#ffaf37;stroke-width:2"/><g fill="none"><path d="M306.15 528.725c-19.78 34.41-40.36 70.215-60.18 104.685" style="stroke:#ffaf37;stroke-width:2"/><path d="m315.12 513.12-14.172 12.615 10.403 5.98z" style="stroke:#ffaf37;stroke-width:2"/></g><path fill="none" d="M286.217 335.134c16.06 45.03 26.093 73.216 36.853 103.386m-42.9-120.34.395 18.97 11.303-4.032z" style="stroke:#ffaf37;stroke-width:2"/></svg>
